X: 133
T:Tall Trees, Long Shadows
M:4/4
L:1/8
F:http://blackrosetheband.googlepages.com/ABCTUNES.ABC May 2009
C:Oliver Schroer
S:Celtic Dance
K:Em
|:"Em"E3 F GABd|"C"e2 ed cBAG|"G"B2 BG DGBD|"D"BAAG (3ABA GF|"Em"EDEF GABd|"C"efed BAGF|"Em"G2GE "D"F2FD|"C"E6 ED:|
||"Em"G2GE "D"F2FD|"C"E2 Bc BAGF|"Em"G2GE "D"F2FD|"C"GFED E2 EF|"Em"G2GE "D"F2FD|"C"E2 Bc BAGF|"Em"G2GE "D"F2FD|"C"GFED EFGA||
|:"Em"Beed efed|"Bm"B3 A "G"Bdde|dBAG "Am"A2 AG||M:2/4 L:1/8 "C"EFGA||[M:4/4] "Em"Beed efed|"G"Bdde BAGE| "D"A4 A3 B|1"Am"(3ABA GB "C"AGED:|
|"Am"(3ABA GB "Bm"AGED|"C"E8||

